static/assets/img/icon-money-back.svg

<?xml version="1.0" encoding="utf-8"?>
<svg width="24px" height="24px" viewBox="0 0 24 24" version="1.1" xmlns:xlink="http://www.w3.org/1999/xlink" xmlns="http://www.w3.org/2000/svg">
  <desc>Created with Lunacy</desc>
  <defs>
    <path d="M0 0L24 0L24 24L0 24L0 0Z" id="path_1" />
    <clipPath id="mask_1">
      <use xlink:href="#path_1" />
    </clipPath>
  </defs>
  <g id="icon-money-back">
    <path d="M0 0L24 0L24 24L0 24L0 0Z" id="Background" fill="none" fill-rule="evenodd" stroke="none" />
    <g clip-path="url(#mask_1)">
      <path d="M9.94733 0C7.45646 0 5.17825 0.929132 3.42389 2.44531L2.19538 1.2168C1.73438 0.755797 0.947329 1.08042 0.947329 1.73242L0.947329 4.99414C0.947329 5.54914 1.39719 6 1.95319 6L5.21491 6C5.86691 6 6.19348 5.21295 5.73249 4.75195L4.83795 3.85742C6.22459 2.70062 8.00072 2 9.94733 2C14.0658 2 17.455 5.11728 17.8985 9.11133C17.96 9.66038 18.4549 10.0556 19.004 9.99414C19.553 9.93266 19.9483 9.43772 19.8868 8.88867C19.3323 3.89472 15.0768 0 9.94733 0L9.94733 0ZM9.92975 3.59961C9.65275 3.59961 9.4278 3.82456 9.4278 4.10156L9.4278 5.0293C9.0888 5.0723 7.19147 5.42875 7.19147 7.71875C7.19147 11.0597 10.6505 10.0718 10.6505 12.3008C10.6505 13.4168 9.93027 13.4434 9.78327 13.4434C9.66827 13.4434 9.00347 13.4946 8.81647 12.4336C8.75147 12.0626 8.40345 11.8066 8.02545 11.8066L7.76374 11.8066C7.26874 11.8066 6.866 12.2513 6.961 12.7363C7.356 14.7503 9.01513 14.9327 9.28913 14.9707L9.28913 15.8008C9.28913 16.0778 9.51213 16.3008 9.78913 16.3008C10.0661 16.3008 10.2911 16.0778 10.2911 15.8008L10.2911 14.9707C10.6291 14.9287 12.5411 14.6132 12.5411 12.2852C12.5411 9.08016 9.08109 9.69356 9.08209 7.72656C9.08209 6.59956 9.70395 6.56445 9.83795 6.56445C10.034 6.56445 10.4446 6.70489 10.6016 7.46289C10.6826 7.85689 11.0004 8.1543 11.4024 8.1543L11.6622 8.1543C12.1862 8.1543 12.5652 7.66044 12.4512 7.14844C12.0662 5.41544 10.7116 5.10964 10.4376 5.05664L10.4376 4.10156C10.4376 3.82456 10.2126 3.59961 9.93561 3.59961L9.92975 3.59961L9.92975 3.59961ZM0.974673 9.98633C0.692131 9.99352 0.425821 10.1199 0.24161 10.3343C0.0573988 10.5486 -0.0275128 10.8309 0.00787592 11.1113C0.562389 16.1053 4.81785 20 9.94733 20C12.4317 20 14.7045 19.0756 16.4571 17.5664L17.67 18.7793C18.142 19.2513 18.9473 18.918 18.9473 18.252L18.9473 15.0098C18.9473 14.4528 18.4946 14 17.9376 14L14.6954 14C14.0294 14 13.697 14.8044 14.168 15.2754L15.0391 16.1465C13.6557 17.2989 11.8883 18 9.94733 18C5.82881 18 2.43964 14.8827 1.99616 10.8887C1.94505 10.3665 1.49914 9.97262 0.974672 9.98633L0.974673 9.98633Z" transform="translate(2.0526733 2)" id="Shape" fill="#FFFFFF" fill-rule="evenodd" stroke="none" />
    </g>
  </g>
</svg>

<svg width="24" height="24" xmlns:xlink="http://www.w3.org/1999/xlink" xmlns="http://www.w3.org/2000/svg"><defs><clipPath id="mask_1"><use xlink:href="#path_1"/></clipPath><path d="M0 0h24v24H0V0z" id="path_1"/></defs><g id="icon-money-back"><path d="M0 0h24v24H0V0z" id="Background" fill="none" fill-rule="evenodd" stroke="none"/><g clip-path="url(#mask_1)"><path d="M9.947 0c-2.49 0-4.769.93-6.523 2.445L2.195 1.217a.73.73 0 00-1.248.515v3.262C.947 5.55 1.397 6 1.953 6h3.262a.731.731 0 00.517-1.248l-.894-.895A7.943 7.943 0 019.948 2c4.118 0 7.507 3.117 7.95 7.111a1 1 0 001.989-.222C19.332 3.895 15.077 0 9.947 0zM9.93 3.6a.502.502 0 00-.502.502v.927c-.34.043-2.237.4-2.237 2.69 0 3.34 3.46 2.353 3.46 4.582 0 1.116-.72 1.142-.868 1.142-.115 0-.78.052-.967-1.01-.065-.37-.413-.626-.79-.626h-.262c-.495 0-.898.444-.803.93.395 2.013 2.054 2.196 2.328 2.234v.83a.5.5 0 001.002 0v-.83c.338-.042 2.25-.358 2.25-2.686 0-3.205-3.46-2.591-3.459-4.558 0-1.127.622-1.163.756-1.163.196 0 .607.14.764.899.08.394.398.691.8.691h.26a.82.82 0 00.79-1.006c-.386-1.733-1.74-2.038-2.014-2.091v-.955a.502.502 0 00-.502-.502H9.93zM.975 9.986a1 1 0 00-.967 1.125C.562 16.105 4.818 20 9.948 20a9.952 9.952 0 006.51-2.434l1.212 1.213a.748.748 0 001.277-.527V15.01a1.01 1.01 0 00-1.01-1.01h-3.242a.747.747 0 00-.527 1.275l.871.871A7.921 7.921 0 019.947 18c-4.118 0-7.507-3.117-7.95-7.111a1 1 0 00-1.022-.903z" transform="translate(2.053 2)" id="Shape" fill="#FFF" fill-rule="evenodd" stroke="none"/></g></g></svg>
